color/bcpt.svg

<!-- Generated by IcoMoon.io -->
<svg version="1.1" xmlns="http://www.w3.org/2000/svg" width="32" height="32" viewBox="0 0 32 32">
<title>bcpt</title>
<path fill="#404040" d="M32 16c0 8.837-7.163 16-16 16s-16-7.163-16-16c0-8.837 7.163-16 16-16s16 7.163 16 16z"></path>
<path fill="#fff" d="M16 27c-6.075 0-11-4.925-11-11s4.925-11 11-11 11 4.925 11 11-4.925 11-11 11zM16 25.898c5.466 0 9.898-4.432 9.898-9.898s-4.432-9.898-9.898-9.898-9.898 4.432-9.898 9.898 4.432 9.898 9.898 9.898zM22.043 12.12c0.165 2.938-2.55 3.714-2.55 3.714 3.103 0.443 2.937 3.104 2.937 3.104 0 4.322-4.822 4.491-4.822 4.491h-6.763v-14.857h6.098c5.1 0.222 5.1 3.548 5.1 3.548zM14.337 11.233v3.602h2.44s1.718-0.055 1.828-1.441v-0.887s0-1.163-1.663-1.274zM18.937 19.383v-0.888s0-1.165-1.662-1.276h-2.939v3.605h2.773s1.718-0.055 1.829-1.442z"></path>
</svg>

<svg height="32" viewBox="0 0 32 32" width="32" xmlns="http://www.w3.org/2000/svg"><g fill="none"><circle cx="16" cy="16" fill="#404040" r="16"/><path d="M16 27C9.925 27 5 22.075 5 16S9.925 5 16 5s11 4.925 11 11-4.925 11-11 11zm0-1.102c5.466 0 9.898-4.432 9.898-9.898S21.466 6.102 16 6.102 6.102 10.534 6.102 16s4.432 9.898 9.898 9.898zm6.043-13.778c.165 2.938-2.55 3.714-2.55 3.714 3.103.443 2.937 3.104 2.937 3.104 0 4.322-4.822 4.491-4.822 4.491h-6.763V8.572h6.098c5.1.222 5.1 3.548 5.1 3.548zm-7.706-.887v3.602h2.44s1.718-.055 1.828-1.441v-.887s0-1.163-1.663-1.274zm4.6 8.15v-.888s0-1.165-1.662-1.276h-2.939v3.605h2.773s1.718-.055 1.829-1.442z" fill="#fff"/></g></svg>
